Sources/FrostedUI/Resources/Icons.xcassets/storefrontItem16.imageset/storefront-item-16.svg

<svg width="16" height="16" viewBox="0 0 16 16" fill="none" xmlns="http://www.w3.org/2000/svg" data-fui-icon="true">
  <g clip-path="url(#clip0_1122_75)">
    <path
      d="M11.2363 5.25C11.5942 5.25 11.9446 5.3518 12.2471 5.54297L15.1943 7.40527C15.6959 7.72237 16 8.27475 16 8.86816V12.1318C16 12.7253 15.6959 13.2776 15.1943 13.5947L12.2471 15.457C11.9446 15.6482 11.5942 15.75 11.2363 15.75C10.8785 15.75 10.5281 15.6482 10.2256 15.457L7.27832 13.5947C6.77681 13.2776 6.47266 12.7252 6.47266 12.1318V8.86816C6.47266 8.2748 6.77681 7.72238 7.27832 7.40527L10.2256 5.54297C10.5281 5.35176 10.8785 5.25002 11.2363 5.25ZM11.9824 11.0693V13.8496L14.3926 12.3271C14.4593 12.2849 14.5 12.2108 14.5 12.1318V9.70703L11.9824 11.0693ZM7.97266 12.1318C7.97266 12.2108 8.01331 12.2849 8.08008 12.3271L10.4824 13.8457V11.0674L7.97266 9.70898V12.1318ZM13.25 0.5C14.7688 0.5 16 1.73122 16 3.25V5.5C16 5.91421 15.6642 6.25 15.25 6.25C14.8358 6.25 14.5 5.91421 14.5 5.5V3.25C14.5 2.55964 13.9404 2 13.25 2H2.75C2.05964 2 1.5 2.55964 1.5 3.25V10.75C1.5 11.4404 2.05964 12 2.75 12H4.75C5.16421 12 5.5 12.3358 5.5 12.75C5.5 13.1642 5.16421 13.5 4.75 13.5H2.75C1.23122 13.5 0 12.2688 0 10.75V3.25C1.28853e-07 1.73122 1.23122 0.5 2.75 0.5H13.25ZM11.2363 6.75C11.1623 6.75002 11.0899 6.77109 11.0273 6.81055L8.60156 8.34375L11.2354 9.76855L13.8701 8.34277L11.4463 6.81055C11.3836 6.77091 11.3105 6.75 11.2363 6.75ZM3.25 3C3.66421 3 4 3.33579 4 3.75C4 4.16421 3.66421 4.5 3.25 4.5C2.83579 4.5 2.5 4.16421 2.5 3.75C2.5 3.33579 2.83579 3 3.25 3ZM5.75 3C6.16421 3 6.5 3.33579 6.5 3.75C6.5 4.16421 6.16421 4.5 5.75 4.5C5.33579 4.5 5 4.16421 5 3.75C5 3.33579 5.33579 3 5.75 3ZM8.25 3C8.66421 3 9 3.33579 9 3.75C9 4.16421 8.66421 4.5 8.25 4.5C7.83579 4.5 7.5 4.16421 7.5 3.75C7.5 3.33579 7.83579 3 8.25 3Z"
      fill="currentColor"
    />
  </g>
  <defs>
    <clipPath id="clip0_1122_75"><path fill="currentColor" d="M0 0H16V16H0z" /></clipPath>
  </defs>
</svg>

<svg xmlns="http://www.w3.org/2000/svg" width="16" height="16" fill="none" data-fui-icon="true" viewBox="0 0 16 16"><g clip-path="url(#a)"><path fill="currentColor" d="M11.236 5.25c.358 0 .709.102 1.011.293l2.947 1.862c.502.317.806.87.806 1.463v3.264a1.73 1.73 0 0 1-.806 1.463l-2.947 1.862a1.89 1.89 0 0 1-2.021 0l-2.948-1.862a1.73 1.73 0 0 1-.805-1.463V8.868c0-.593.304-1.146.805-1.463l2.948-1.862a1.9 1.9 0 0 1 1.01-.293m.746 5.82v2.78l2.41-1.523a.23.23 0 0 0 .108-.195V9.707zm-4.01 1.062c0 .079.041.153.108.195l2.402 1.519v-2.779L7.972 9.71zM13.25.5A2.75 2.75 0 0 1 16 3.25V5.5a.75.75 0 0 1-1.5 0V3.25c0-.69-.56-1.25-1.25-1.25H2.75c-.69 0-1.25.56-1.25 1.25v7.5c0 .69.56 1.25 1.25 1.25h2a.75.75 0 0 1 0 1.5h-2A2.75 2.75 0 0 1 0 10.75v-7.5A2.75 2.75 0 0 1 2.75.5zm-2.014 6.25a.4.4 0 0 0-.209.06L8.602 8.345l2.633 1.425 2.635-1.426-2.424-1.532a.4.4 0 0 0-.21-.061M3.25 3a.75.75 0 1 1 0 1.5.75.75 0 0 1 0-1.5m2.5 0a.75.75 0 1 1 0 1.5.75.75 0 0 1 0-1.5m2.5 0a.75.75 0 1 1 0 1.5.75.75 0 0 1 0-1.5"/></g><defs><clipPath id="a"><path fill="currentColor" d="M0 0h16v16H0z"/></clipPath></defs></svg>
